X:43
T:He's Gone North
M:6/8
L:1/8
R:Jig
C:Gris Sanderson
Q:400
N:A very good (but also extremely annoying at times) friend 
N:moved away and this tune was written to remember him by - 
N:partly from sadness, but mostly from relief that he'd left! It is 
N:an unusual 4-part jig because the 2nd part was written as a 
N:slip jig. However, I haven't worked out how to change time 
N:signatures in abc so I've just kept it in 6/8 all the way 
N:through. So if you play it, it should have that slippy feel in 
N:the middle. This was originally written for the scordatura 
N:tuning A,DAd. 
K:Edor
~E3FED|EFE EDA,|B,2C DCA,|B,CD E2F|
GFD~E3|EFE E2A,|B,2E EFD|1A,B,C D2D:|2B,CD EGA||
|:~B3BAF|EFD~B3|dcA B2c|~B3BAF|
EFD EFD|1A,B,C D2A:|2B,CD EGA||
|:Bcd e2e|fed e2e|fd ec dB|ABc d2c|
Bcd e2e|1fed ecd|BcA BFD|EFD E2A:|
|2fed efd|efe dcB|ABc d2c||
|:~B3BAF|EFD~B3|1dcA B2c|~B3BAF|
EFD EFD|A,B,C D2A:|2dcA Bcd|
e2e fed|ecd BcA|BFD EFD||
